public/img/next/feature3-tentacli.svg

<svg width="121" height="341" viewBox="0 0 121 341" fill="none" xmlns="http://www.w3.org/2000/svg">
<path d="M60.1345 341C-21.1717 304.808 -4.30496 235.5 20.1951 205.5C45.5119 174.5 66.6952 169.5 77.6952 140.5C88.6952 111.5 81.6952 94.5 67.6952 79.5C57.4286 68.5 46.6952 43 55.1952 28C63.6952 13 73.1952 14.5 76.6952 -3.35246e-06C81.8716 9.88217 61.9304 27.2024 69.6952 44.5C77.461 61.7997 97.1951 71.5 111.195 97.5C125.195 123.5 124.895 174.811 94.6951 207.5C64.4957 240.189 49.3696 253.224 60.1345 259" fill="url(#paint0_radial_48_2854)"/>
<path fill-rule="evenodd" clip-rule="evenodd" d="M76.726 0.0592121C78.9515 4.40406 76.3706 10.1753 73.4328 16.7446C69.6822 25.1317 65.3498 34.8195 69.6955 44.5002C73.3629 52.6701 79.6996 59.1451 86.841 66.4424C94.8215 74.5972 103.807 83.7789 111.195 97.5002C125.195 123.5 124.895 174.811 94.6954 207.5C90.1344 212.437 85.9173 216.926 82.0812 221.009C60.5176 243.961 50.9956 254.096 60.1348 259V286.62L59.6348 287C50.1348 285 37.5728 269 34.1347 250.5C28.2975 219.091 49.8113 196.643 69.8981 175.685C85.9437 158.943 101.079 143.151 100.635 124.5C100.004 98.0088 88.8304 85.243 78.908 73.9067C73.0993 67.2703 67.7194 61.1238 65.1347 53.0002C60.8422 39.5098 65.3863 29.7795 70.0048 19.8896C72.8593 13.7773 75.7422 7.60395 76.5851 0.444322C76.6197 0.309044 76.6538 0.17234 76.6873 0.0341797L76.726 0.0592121Z" fill="url(#paint1_linear_48_2854)" fill-opacity="0.4"/>
<defs>
<radialGradient id="paint0_radial_48_2854" cx="0" cy="0" r="1" gradientUnits="userSpaceOnUse" gradientTransform="translate(-35.4451 302.676) rotate(-57.9765) scale(321.04 421.167)">
<stop stop-color="#CA72B7"/>
<stop offset="0.237847" stop-color="#914680"/>
<stop offset="1" stop-color="#3F2660"/>
</radialGradient>
<linearGradient id="paint1_linear_48_2854" x1="90.1484" y1="0.000245744" x2="189.118" y2="325.368" gradientUnits="userSpaceOnUse">
<stop stop-color="#272531"/>
<stop offset="1" stop-color="#272531" stop-opacity="0"/>
</linearGradient>
</defs>
</svg>

<svg width="121" height="341" fill="none" xmlns="http://www.w3.org/2000/svg"><path d="M60.135 341c-81.307-36.192-64.44-105.5-39.94-135.5 25.317-31 46.5-36 57.5-65s4-46-10-61c-10.266-11-21-36.5-12.5-51.5s18-13.5 21.5-28c5.177 9.882-14.765 27.202-7 44.5 7.766 17.3 27.5 27 41.5 53s13.7 77.311-16.5 110c-30.2 32.689-45.325 45.724-34.56 51.5" fill="url(#a)"/><path fill-rule="evenodd" clip-rule="evenodd" d="M76.726.06c2.225 4.344-.355 10.115-3.293 16.685-3.75 8.387-8.083 18.074-3.738 27.755 3.668 8.17 10.005 14.645 17.146 21.942 7.98 8.155 16.966 17.337 24.354 31.058 14 26 13.7 77.311-16.5 110a2143.491 2143.491 0 0 1-12.614 13.509C60.518 243.961 50.996 254.096 60.135 259v27.62l-.5.38c-9.5-2-22.062-18-25.5-36.5-5.837-31.409 15.676-53.857 35.763-74.815 16.046-16.742 31.181-32.534 30.737-51.185-.631-26.491-11.805-39.257-21.727-50.593C73.099 67.27 67.719 61.124 65.135 53c-4.293-13.49.251-23.22 4.87-33.11 2.854-6.113 5.737-12.286 6.58-19.446.035-.135.069-.272.102-.41l.039.025z" fill="url(#b)" fill-opacity=".4"/><defs><radialGradient id="a" cx="0" cy="0" r="1" gradientUnits="userSpaceOnUse" gradientTransform="matrix(170.23693 -272.18756 357.0783 223.33098 -35.445 302.676)"><stop stop-color="#CA72B7"/><stop offset=".238" stop-color="#914680"/><stop offset="1" stop-color="#3F2660"/></radialGradient><linearGradient id="b" x1="90.148" y1="0" x2="189.118" y2="325.368" gradientUnits="userSpaceOnUse"><stop stop-color="#272531"/><stop offset="1" stop-color="#272531" stop-opacity="0"/></linearGradient></defs></svg>
